X:109
T:Gan Ainm
M:2/4
L:1/8
R:polka
N:Learned from Howard Chu
Z:Michael Abraham Shulman
N:Howard can't remember the name of this tune.  I've seen it labeled
N:Gan Ainm (no name) in one place and Mrs. Crowley's in another, but
N:the latter more often refers to a different tune.
K:G
A|:BG G>A|BG GB|AD FG|AB c/B/A|BG G>A|BG GB|AD FG|AG G>A:|
|:Bd ce|df B>c|dc A2|ed B>A|Bd ce|df B>c|dc AF|G2 G>A:|
